logo/sg-1000.svg

<svg xmlns:dc="http://purl.org/dc/elements/1.1/" xmlns:cc="http://creativecommons.org/ns#" xmlns:rdf="http://www.w3.org/1999/02/22-rdf-syntax-ns#" xmlns:svg="http://www.w3.org/2000/svg" xmlns="http://www.w3.org/2000/svg" xmlns:sodipodi="http://sodipodi.sourceforge.net/DTD/sodipodi-0.dtd" xmlns:inkscape="http://www.inkscape.org/namespaces/inkscape" width="1924.6993" height="277.25568" inkscape:version="0.48.5 r10040" sodipodi:docname="sg-1000.svg">
  <defs/>
  <sodipodi:namedview inkscape:document-units="mm" pagecolor="#ffffff" bordercolor="#666666" borderopacity="1.0" inkscape:pageopacity="0.0" inkscape:pageshadow="2" inkscape:zoom="0.3813819" inkscape:cx="916.22887" inkscape:cy="-31.76101" inkscape:current-layer="layer1" showgrid="false" inkscape:window-width="1366" inkscape:window-height="706" inkscape:window-x="-8" inkscape:window-y="-8" inkscape:window-maximized="1" units="mm" fit-margin-top="0" fit-margin-left="0" fit-margin-right="0" fit-margin-bottom="0"/>
  <g inkscape:label="Layer 1" inkscape:groupmode="layer">
    <path inkscape:connector-curvature="0" style="text-align:center;line-height:125%;-inkscape-font-specification:Zeroes One" d="M257.6906445 221.59174c-.00029 16.49013-5.00379 29.80603-15.01052 39.94953-10.00728 10.1436-23.52809 15.2144-40.56247 15.2144H4.9691127v-55.16393h197.1485418v-55.1771H55.2683035c-16.225879 0-29.410368-5.1377-39.553511-15.41312C5.5715661 140.72713.4999746 127.47618.5 111.25073v-55.5858C.4999746 47.8245 1.9876134 40.52461 4.9629233 33.76528c2.9752492-6.75934 6.9636082-12.57349 11.9650912-17.44346 5.001398-4.86896 10.815778-8.72376 17.443158-11.56237C40.9984335 1.91981 47.9641355.50101 55.2683035.5h183.765961v55.16493H55.2683035v55.5858h146.849351c7.84032 0 15.14233 1.4188 21.90608 4.25843 6.76326 2.83862 12.64573 6.69139 17.64743 11.55629 5.00118 4.86591 8.92144 10.68006 11.76082 17.44346 2.83883 6.76339 4.25837 14.0653 4.25866 21.90573z" font-size="40px" letter-spacing="0px" word-spacing="0px" text-anchor="middle" fill="#ff0000" stroke="#000000" font-family="Zeroes One"/>
    <path inkscape:connector-curvature="0" style="text-align:center;line-height:125%;-inkscape-font-specification:Zeroes One" d="M578.1792845 276.75567h-221.07873c-36.7846 0-55.17686-18.3876-55.17683-55.16393V55.66493c-.00003-7.84043 1.48761-15.14032 4.46292-21.89965 2.97526-6.75934 6.96568-12.57349 11.97128-17.44346 5.00552-4.86896 10.8199-8.72376 17.44316-11.56237 6.62314-2.83964 13.72295-4.25844 21.29947-4.25945h211.75672v55.16493h-211.75672v165.92681h165.50575v-55.1771h-109.93276v-55.16391h165.50574z" font-size="40px" letter-spacing="0px" word-spacing="0px" text-anchor="middle" fill="#ff0000" stroke="#000000" font-family="Zeroes One"/>
    <path inkscape:connector-curvature="0" style="text-align:center;line-height:125%;-inkscape-font-specification:Zeroes One" d="M785.7392445 166.41464h-165.51811v-55.16391h165.51811z" font-size="40px" letter-spacing="0px" word-spacing="0px" text-anchor="middle" fill="#ff0000" stroke="#000000" font-family="Zeroes One"/>
    <path inkscape:connector-curvature="0" style="text-align:center;line-height:125%;-inkscape-font-specification:Zeroes One" d="M977.8863845 276.75567h-165.51815v-55.16393h55.57298V55.66493h-55.57298V.5h110.74982v221.09174h54.76833z" font-size="40px" letter-spacing="0px" word-spacing="0px" text-anchor="middle" fill="#ff0000" stroke="#000000" font-family="Zeroes One"/>
    <path style="text-align:center;line-height:125%;-inkscape-font-specification:Zeroes One" d="M1069.6562.5c-7.2959.00101-14.2476 1.41036-20.875 4.25-6.6272 2.83861-12.436 6.69354-17.4374 11.5625-5.0015 4.86997-8.9935 10.67816-11.9688 17.4375-2.9752 6.75933-4.4688 14.06582-4.4688 21.90625v165.9375c0 36.77633 18.2462 55.15625 54.75 55.15625h165.5313c36.776 0 55.156-18.37992 55.1563-55.15625V55.65625c-.0004-7.56762-1.4112-14.70941-4.25-21.46875-2.8394-6.75934-6.7489-12.65038-11.75-17.65625-5.0018-5.00485-10.893-8.94264-17.6563-11.78125-6.7637-2.83964-13.9321-4.249-21.5-4.25h-165.5313zm0 55.15625h165.5313v165.9375h-165.5313V55.65625z" font-size="40px" letter-spacing="0px" word-spacing="0px" text-anchor="middle" fill="#ff0000" stroke="#000000" font-family="Zeroes One"/>
    <path style="text-align:center;line-height:125%;-inkscape-font-specification:Zeroes One" d="M1386.5938.5c-7.296.00101-14.2477 1.41036-20.875 4.25-6.6273 2.83861-12.4361 6.69354-17.4376 11.5625-5.0013 4.86997-8.9934 10.67816-11.9687 17.4375-2.9753 6.75933-4.4687 14.06582-4.4687 21.90625v165.9375c0 36.77633 18.246 55.15625 54.75 55.15625h165.5312c36.7761 0 55.156-18.37992 55.1562-55.15625V55.65625c-.0002-7.56762-1.4112-14.70941-4.25-21.46875-2.8393-6.75934-6.78-12.65038-11.7812-17.65625-5.0017-5.00485-10.8929-8.94264-17.6562-11.78125-6.7637-2.83964-13.9009-4.249-21.4688-4.25h-165.5312zm0 55.15625h165.5312v165.9375h-165.5312V55.65625z" font-size="40px" letter-spacing="0px" word-spacing="0px" text-anchor="middle" fill="#ff0000" stroke="#000000" font-family="Zeroes One"/>
    <path style="text-align:center;line-height:125%;-inkscape-font-specification:Zeroes One" d="M1703.5312.5c-7.2959.00101-14.2789 1.41036-20.9062 4.25-6.6273 2.83861-12.4361 6.69354-17.4375 11.5625-5.0014 4.86997-8.9934 10.67816-11.9687 17.4375-2.9753 6.75933-4.4688 14.06582-4.4688 21.90625v165.9375c0 36.77633 18.2774 55.15625 54.7812 55.15625h165.5c36.776 0 55.156-18.37992 55.1563-55.15625V55.65625c-.0003-7.56762-1.4111-14.70941-4.25-21.46875-2.8393-6.75934-6.7488-12.65038-11.75-17.65625-5.0017-5.00485-10.8929-8.94264-17.6563-11.78125-6.7636-2.83964-13.932-4.249-21.5-4.25h-165.5zm0 55.15625h165.5v165.9375h-165.5V55.65625z" font-size="40px" letter-spacing="0px" word-spacing="0px" text-anchor="middle" fill="#ff0000" stroke="#000000" font-family="Zeroes One"/>
  </g>
</svg>

<?xml version="1.0" encoding="UTF-8" standalone="no"?>
<!-- Created with Inkscape (http://www.inkscape.org/) -->

<svg
   xmlns:dc="http://purl.org/dc/elements/1.1/"
   xmlns:cc="http://creativecommons.org/ns#"
   xmlns:rdf="http://www.w3.org/1999/02/22-rdf-syntax-ns#"
   xmlns:svg="http://www.w3.org/2000/svg"
   xmlns="http://www.w3.org/2000/svg"
   xmlns:sodipodi="http://sodipodi.sourceforge.net/DTD/sodipodi-0.dtd"
   xmlns:inkscape="http://www.inkscape.org/namespaces/inkscape"
   width="1924.6993"
   height="277.25568"
   id="svg4139"
   version="1.1"
   inkscape:version="0.48.5 r10040"
   sodipodi:docname="sg-1000.svg">
  <defs
     id="defs3" />
  <sodipodi:namedview
     inkscape:document-units="mm"
     id="base"
     pagecolor="#ffffff"
     bordercolor="#666666"
     borderopacity="1.0"
     inkscape:pageopacity="0.0"
     inkscape:pageshadow="2"
     inkscape:zoom="0.3813819"
     inkscape:cx="916.22887"
     inkscape:cy="-31.76101"
     inkscape:current-layer="layer1"
     showgrid="false"
     inkscape:window-width="1366"
     inkscape:window-height="706"
     inkscape:window-x="-8"
     inkscape:window-y="-8"
     inkscape:window-maximized="1"
     units="mm"
     fit-margin-top="0"
     fit-margin-left="0"
     fit-margin-right="0"
     fit-margin-bottom="0" />
  <metadata
     id="metadata4">
    <rdf:RDF>
      <cc:Work
         rdf:about="">
        <dc:format>image/svg+xml</dc:format>
        <dc:type
           rdf:resource="http://purl.org/dc/dcmitype/StillImage" />
        <dc:title></dc:title>
      </cc:Work>
    </rdf:RDF>
  </metadata>
  <g
     inkscape:label="Layer 1"
     inkscape:groupmode="layer"
     id="layer1"
     transform="translate(-4.3835455,-772.49433)">
    <path
       inkscape:connector-curvature="0"
       id="path6759"
       style="font-size:40px;font-style:normal;font-variant:normal;font-weight:normal;font-stretch:normal;text-align:center;line-height:125%;letter-spacing:0px;word-spacing:0px;writing-mode:lr-tb;text-anchor:middle;fill:#ff0000;fill-opacity:1;stroke:#000000;stroke-opacity:1;font-family:Zeroes One;-inkscape-font-specification:Zeroes One"
       d="m 262.07419,994.08607 c -2.9e-4,16.49013 -5.00379,29.80603 -15.01052,39.94953 -10.00728,10.1436 -23.52809,15.2144 -40.56247,15.2144 l -197.1485418,0 0,-55.16393 197.1485418,0 0,-55.1771 -146.849351,0 c -16.225879,0 -29.410368,-5.1377 -39.553511,-15.41312 C 9.9551116,913.22146 4.8835201,899.97051 4.8835455,883.74506 l 0,-55.5858 c -2.54e-5,-7.84043 1.4876134,-15.14032 4.4629233,-21.89965 2.9752492,-6.75934 6.9636082,-12.57349 11.9650912,-17.44346 5.001398,-4.86896 10.815778,-8.72376 17.443158,-11.56237 6.627261,-2.83964 13.592963,-4.25844 20.897131,-4.25945 l 183.765961,0 0,55.16493 -183.765961,0 0,55.5858 146.849351,0 c 7.84032,0 15.14233,1.4188 21.90608,4.25843 6.76326,2.83862 12.64573,6.69139 17.64743,11.55629 5.00118,4.86591 8.92144,10.68006 11.76082,17.44346 2.83883,6.76339 4.25837,14.0653 4.25866,21.90573 z" />
    <path
       inkscape:connector-curvature="0"
       id="path6761"
       style="font-size:40px;font-style:normal;font-variant:normal;font-weight:normal;font-stretch:normal;text-align:center;line-height:125%;letter-spacing:0px;word-spacing:0px;writing-mode:lr-tb;text-anchor:middle;fill:#ff0000;fill-opacity:1;stroke:#000000;stroke-opacity:1;font-family:Zeroes One;-inkscape-font-specification:Zeroes One"
       d="m 582.56283,1049.25 -221.07873,0 c -36.7846,0 -55.17686,-18.3876 -55.17683,-55.16393 l 0,-165.92681 c -3e-5,-7.84043 1.48761,-15.14032 4.46292,-21.89965 2.97526,-6.75934 6.96568,-12.57349 11.97128,-17.44346 5.00552,-4.86896 10.8199,-8.72376 17.44316,-11.56237 6.62314,-2.83964 13.72295,-4.25844 21.29947,-4.25945 l 211.75672,0 0,55.16493 -211.75672,0 0,165.92681 165.50575,0 0,-55.1771 -109.93276,0 0,-55.16391 165.50574,0 z" />
    <path
       inkscape:connector-curvature="0"
       id="path6763"
       style="font-size:40px;font-style:normal;font-variant:normal;font-weight:normal;font-stretch:normal;text-align:center;line-height:125%;letter-spacing:0px;word-spacing:0px;writing-mode:lr-tb;text-anchor:middle;fill:#ff0000;fill-opacity:1;stroke:#000000;stroke-opacity:1;font-family:Zeroes One;-inkscape-font-specification:Zeroes One"
       d="m 790.12279,938.90897 -165.51811,0 0,-55.16391 165.51811,0 z" />
    <path
       inkscape:connector-curvature="0"
       id="path6765"
       style="font-size:40px;font-style:normal;font-variant:normal;font-weight:normal;font-stretch:normal;text-align:center;line-height:125%;letter-spacing:0px;word-spacing:0px;writing-mode:lr-tb;text-anchor:middle;fill:#ff0000;fill-opacity:1;stroke:#000000;stroke-opacity:1;font-family:Zeroes One;-inkscape-font-specification:Zeroes One"
       d="m 982.26993,1049.25 -165.51815,0 0,-55.16393 55.57298,0 0,-165.92681 -55.57298,0 0,-55.16493 110.74982,0 0,221.09174 54.76833,0 z" />
    <path
       style="font-size:40px;font-style:normal;font-variant:normal;font-weight:normal;font-stretch:normal;text-align:center;line-height:125%;letter-spacing:0px;word-spacing:0px;writing-mode:lr-tb;text-anchor:middle;fill:#ff0000;fill-opacity:1;stroke:#000000;stroke-opacity:1;font-family:Zeroes One;-inkscape-font-specification:Zeroes One"
       d="M 1069.6562 0.5 C 1062.3603 0.50101 1055.4086 1.91036 1048.7812 4.75 C 1042.154 7.58861 1036.3452 11.44354 1031.3438 16.3125 C 1026.3423 21.18247 1022.3503 26.99066 1019.375 33.75 C 1016.3998 40.50933 1014.9062 47.81582 1014.9062 55.65625 L 1014.9062 221.59375 C 1014.9062 258.37008 1033.1524 276.75 1069.6562 276.75 L 1235.1875 276.75 C 1271.9635 276.75 1290.3435 258.37008 1290.3438 221.59375 L 1290.3438 55.65625 C 1290.3434 48.08863 1288.9326 40.94684 1286.0938 34.1875 C 1283.2544 27.42816 1279.3449 21.53712 1274.3438 16.53125 C 1269.342 11.5264 1263.4508 7.58861 1256.6875 4.75 C 1249.9238 1.91036 1242.7554 0.501 1235.1875 0.5 L 1069.6562 0.5 z M 1069.6562 55.65625 L 1235.1875 55.65625 L 1235.1875 221.59375 L 1069.6562 221.59375 L 1069.6562 55.65625 z "
       id="path4499"
       transform="translate(4.3835455,772.49433)" />
    <path
       style="font-size:40px;font-style:normal;font-variant:normal;font-weight:normal;font-stretch:normal;text-align:center;line-height:125%;letter-spacing:0px;word-spacing:0px;writing-mode:lr-tb;text-anchor:middle;fill:#ff0000;fill-opacity:1;stroke:#000000;stroke-opacity:1;font-family:Zeroes One;-inkscape-font-specification:Zeroes One"
       d="M 1386.5938 0.5 C 1379.2978 0.50101 1372.3461 1.91036 1365.7188 4.75 C 1359.0915 7.58861 1353.2827 11.44354 1348.2812 16.3125 C 1343.2799 21.18247 1339.2878 26.99066 1336.3125 33.75 C 1333.3372 40.50933 1331.8438 47.81582 1331.8438 55.65625 L 1331.8438 221.59375 C 1331.8438 258.37008 1350.0898 276.75 1386.5938 276.75 L 1552.125 276.75 C 1588.9011 276.75 1607.281 258.37008 1607.2812 221.59375 L 1607.2812 55.65625 C 1607.281 48.08863 1605.87 40.94684 1603.0312 34.1875 C 1600.1919 27.42816 1596.2512 21.53712 1591.25 16.53125 C 1586.2483 11.5264 1580.3571 7.58861 1573.5938 4.75 C 1566.8301 1.91036 1559.6929 0.501 1552.125 0.5 L 1386.5938 0.5 z M 1386.5938 55.65625 L 1552.125 55.65625 L 1552.125 221.59375 L 1386.5938 221.59375 L 1386.5938 55.65625 z "
       transform="translate(4.3835455,772.49433)"
       id="path4503" />
    <path
       style="font-size:40px;font-style:normal;font-variant:normal;font-weight:normal;font-stretch:normal;text-align:center;line-height:125%;letter-spacing:0px;word-spacing:0px;writing-mode:lr-tb;text-anchor:middle;fill:#ff0000;fill-opacity:1;stroke:#000000;stroke-opacity:1;font-family:Zeroes One;-inkscape-font-specification:Zeroes One"
       d="M 1703.5312 0.5 C 1696.2353 0.50101 1689.2523 1.91036 1682.625 4.75 C 1675.9977 7.58861 1670.1889 11.44354 1665.1875 16.3125 C 1660.1861 21.18247 1656.1941 26.99066 1653.2188 33.75 C 1650.2435 40.50933 1648.75 47.81582 1648.75 55.65625 L 1648.75 221.59375 C 1648.75 258.37008 1667.0274 276.75 1703.5312 276.75 L 1869.0312 276.75 C 1905.8072 276.75 1924.1872 258.37008 1924.1875 221.59375 L 1924.1875 55.65625 C 1924.1872 48.08863 1922.7764 40.94684 1919.9375 34.1875 C 1917.0982 27.42816 1913.1887 21.53712 1908.1875 16.53125 C 1903.1858 11.5264 1897.2946 7.58861 1890.5312 4.75 C 1883.7676 1.91036 1876.5992 0.501 1869.0312 0.5 L 1703.5312 0.5 z M 1703.5312 55.65625 L 1869.0312 55.65625 L 1869.0312 221.59375 L 1703.5312 221.59375 L 1703.5312 55.65625 z "
       transform="translate(4.3835455,772.49433)"
       id="path4507" />
  </g>
</svg>
